src/pos-icons/eye-minus.svg

<svg height="24" viewBox="0 0 24 24" width="24" xmlns="http://www.w3.org/2000/svg"><path d="m12 4.5a11.8 11.8 0 0 0 -11 7.5 11.8 11.8 0 0 0 11 7.5h1.1a3.8 3.8 0 0 1 -.1-1 9.9 9.9 0 0 1 .2-1.7l-1.2.2a5 5 0 1 1 5-5 2.8 2.8 0 0 1 -.1.9 5.2 5.2 0 0 1 2.1-.4 5.6 5.6 0 0 1 3.3 1 10.1 10.1 0 0 0 .7-1.5 11.8 11.8 0 0 0 -11-7.5m0 4.5a3 3 0 1 0 3 3 2.9 2.9 0 0 0 -3-3m3 8.5v2h8v-2z"/></svg>

<?xml version="1.0" encoding="UTF-8"?><!DOCTYPE svg PUBLIC "-//W3C//DTD SVG 1.1//EN" "http://www.w3.org/Graphics/SVG/1.1/DTD/svg11.dtd"><svg xmlns="http://www.w3.org/2000/svg" xmlns:xlink="http://www.w3.org/1999/xlink" version="1.1" id="mdi-eye-minus" width="24" height="24" viewBox="0 0 24 24"><path d="M12 4.5A11.8 11.8 0 0 0 1 12A11.8 11.8 0 0 0 12 19.5H13.1A3.8 3.8 0 0 1 13 18.5A9.9 9.9 0 0 1 13.2 16.8L12 17A5 5 0 1 1 17 12A2.8 2.8 0 0 1 16.9 12.9A5.2 5.2 0 0 1 19 12.5A5.6 5.6 0 0 1 22.3 13.5A10.1 10.1 0 0 0 23 12A11.8 11.8 0 0 0 12 4.5M12 9A3 3 0 1 0 15 12A2.9 2.9 0 0 0 12 9M15 17.5V19.5H23V17.5Z" /></svg>
